public/images/logos/yahoo.svg

<?xml version="1.0" encoding="UTF-8" standalone="no"?>
<!-- Uploaded to: SVG Repo, www.svgrepo.com, Generator: SVG Repo Mixer Tools -->

<svg fill="#000000" width="32" height="32" viewBox="0 0 1.28 1.28" version="1.1" id="svg1" sodipodi:docname="yahoo.svg" inkscape:version="1.4-beta2 (9aaf4f34, 2024-07-30)" xmlns:inkscape="http://www.inkscape.org/namespaces/inkscape" xmlns:sodipodi="http://sodipodi.sourceforge.net/DTD/sodipodi-0.dtd" xmlns="http://www.w3.org/2000/svg" xmlns:svg="http://www.w3.org/2000/svg" xmlns:rdf="http://www.w3.org/1999/02/22-rdf-syntax-ns#" xmlns:cc="http://creativecommons.org/ns#" xmlns:dc="http://purl.org/dc/elements/1.1/">
  <defs id="defs1" />
  <sodipodi:namedview id="namedview1" pagecolor="#ffffff" bordercolor="#000000" borderopacity="0.25" inkscape:showpageshadow="2" inkscape:pageopacity="0.0" inkscape:pagecheckerboard="0" inkscape:deskcolor="#d1d1d1" inkscape:zoom="4.7377085" inkscape:cx="6.9653926" inkscape:cy="48.230067" inkscape:window-width="1440" inkscape:window-height="790" inkscape:window-x="0" inkscape:window-y="0" inkscape:window-maximized="1" inkscape:current-layer="svg1" />
  <title id="title1">yahoo</title>
  <path d="m 0.8330755,0.686391 c -0.00179,-8.53e-5 -0.00388,-1.28e-4 -0.00597,-1.28e-4 -0.080832,0 -0.1466418,0.064231 -0.1492025,0.1444225 v 2.561e-4 c 0.00222,0.077418 0.065511,0.1393011 0.1432702,0.1393011 0.00196,0 0.00388,-4.26e-5 0.0058,-1.28e-4 h -2.56e-4 c 0.00218,1.28e-4 0.00469,1.707e-4 0.00726,1.707e-4 0.080405,0 0.1459589,-0.063676 0.1489891,-0.1433555 V 0.8266738 C 0.9816378,0.748829 0.9182182,0.6862203 0.84016,0.6862203 c -0.00248,0 -0.00495,8.54e-5 -0.00743,1.707e-4 z M 0,0.3578554 0.2746759,0.9743825 0.1760043,1.1967778 H 0.4176047 L 0.7834836,0.3578554 H 0.5435049 L 0.3941744,0.7167778 0.246423,0.3578554 H 4.27e-5 Z M 1.0058789,0.0832222 0.7610776,0.6330862 h 0.273609 L 1.28,0.0832222 Z" id="path1" style="stroke-width:0.042678" />
  <metadata id="metadata1">
    <rdf:RDF>
      <cc:Work rdf:about="">
        <dc:title>yahoo</dc:title>
      </cc:Work>
    </rdf:RDF>
  </metadata>
</svg>

<svg width="32" height="32" viewBox="0 0 1.28 1.28" xmlns="http://www.w3.org/2000/svg">
  <path d="M.833.686A.15.15 0 0 0 .678.83a.143.143 0 0 0 .149.14h.007A.15.15 0 0 0 .983.827.143.143 0 0 0 .84.687H.833zM0 .358l.275.616-.099.223h.242l.365-.84h-.24l-.149.36-.148-.36H0ZM1.006.083.76.633h.274l.245-.55Z" style="stroke-width:.042678"/>
</svg>
